X: 1721
T: the Bridge of Athlone
R: hornpipe, reel
%S: s:3 b:12(4+4+4)
B: O'Neill's 1850 #1721
O: J.O'Neill
Z: Bob Safranek, rjs@gsp.org
M: C|
L: 1/8
N: Compacted by using labels and play order [JC]
P: Play ABAB CBCB
K: Bb
"^A"[|] (3FGA | B2B2 F>Bd>B | c>Bc>d e>dc>B | A>Bc>d c>BA>G | (3FAc f>g f>e |]
"^B"[|    d>c | B>dF>B (3DFB d>B | e>gc>e (3FAc e>c | (3BAc (3BAG F2G>A | B2d2 B2 |]
"^C"[|  (A>B) | c>fa>g (3feg f>e | d>fb>a g2g>f | (3edc (3dcB (3afe (3dcB | (3FAc f>g f>e |]
